X: 24832
T: Maggie Watson's Farewell To Blackhammer
R: barndance
M: 4/4
K: Dmajor
|:A2 d2 f>ef>g|a2 f2 f>ed>B|A2 c2 e>gf>e|d2 f2 f>g a2|A2 d2 f>ef>g|a2 f2 f>ed>B|A2 c2 e>gf>e|d2 f2 d4:|
|:A2 d2 f>ed>B|A2 F2 F>GA>F|G2 E2 E>FG>B|A2 F2 F>G A2|A2 d2 f>ed>B|A2 F2 F>GA>F|G2 E2 c2 B>c|d2 d2 d4:|
[K:G]|:B3 c d3 c|Bdg>a gf f2|A3B c3 d|fed>c cB B2|B3 c d3 c|Bdg>b ba a2|a3 g f3 e|ddef gg g2:|

